X: 1
T: Jeg gikk meg ut i lunden gr\onn
T: Lunden Gr\onn reinlender
O: Norway
R: snoa
Z: 2020 John Chambers <jc:trillian.mit.edu>
M: C
L: 1/16
K: G
D |\
"G"D2G2 G3A | "D7"F2D2 F3G | "C"E2C2 C2E2 | "D7"~E2D2 D3D |\
"G"D2G2 G3A | "D"F2D2 F3G | "C"E2C2 "D7"D2F2 | "G"G4 z4 |]
[|\
"G"G2GB d4 | "F"c2AA A2A2 | "F"=F2FA c2dc | "G"B2G2 D3D |\
"G"D2G2 G3A | "D"F2D2 F3G | "C"E2C2 "D7"D2F2 | "G"G4 z3 |]
%%text As an instrumental, the parts may be repeated, but not for the song.
